src/assets/svg/ic_contact_id_fetch.svg

<svg xmlns="http://www.w3.org/2000/svg" width="16" height="16">
    <path d="M3.106 11.665l-.652-.663L0 13.444l2.455 2.464.651-.636L1.803 14H6v-1H1.803z"/>
    <path d="M15.986 2.93a.989.989 0 00-.958-.924C15.041 2.002 15.04 2 15 2H2c-.553 0-1 .385-1 .938v7.536l1.465-1.457.991 1.008c.491-.193 1.229-.459 1.81-.887.168-.138.337-.574.337-.574l1.074.736 1.074-.74s.169.427.336.563c.869.638 2.089.933 2.31 1.146.402.39.549.981.613 1.731H7v1h7.999c.553 0 1.001-.51 1.001-1.062v-9c0-.003-.011-.005-.014-.008zM8.441 6.448c-.13.041-.156.67-.481 1.114-.255.348-.62.785-1.033.852a1.615 1.615 0 01-.212.007 1.58 1.58 0 01-.211-.007c-.413-.067-.775-.504-1.029-.852-.325-.444-.342-1.073-.471-1.114-.154-.049-.221-.456-.221-.924 0-.09.217-.216.217-.298V5.22c0-.822.764-1.47 1.654-1.47h.12c.888 0 1.726.648 1.726 1.469v.006c0 .013.008.029.015.045.042.079.165.179.165.254 0 .468-.084.875-.239.924zM15 7h-4V6h4v1zm0-2h-4V4h4v1z"/>
</svg>

<?xml version="1.0" encoding="utf-8"?>
<!-- Generator: Adobe Illustrator 16.0.4, SVG Export Plug-In . SVG Version: 6.00 Build 0)  -->
<!DOCTYPE svg PUBLIC "-//W3C//DTD SVG 1.1//EN" "http://www.w3.org/Graphics/SVG/1.1/DTD/svg11.dtd">
<svg version="1.1" id="artwork" xmlns="http://www.w3.org/2000/svg" xmlns:xlink="http://www.w3.org/1999/xlink" x="0px" y="0px"
	 width="16px" height="16px" viewBox="0 0 16 16" enable-background="new 0 0 16 16" xml:space="preserve">
<g>
	<polygon points="3.106,11.665 2.454,11.002 0,13.444 2.455,15.908 3.106,15.272 1.803,14 6,14 6,13 1.803,13 	"/>
	<path d="M15.986,2.93c-0.037-0.508-0.443-0.909-0.958-0.924C15.041,2.002,15.04,2,15,2c-0.001,0,0,0-0.001,0H2
		C1.447,2,1,2.385,1,2.938v7.536l1.465-1.457l0.991,1.008c0.491-0.193,1.229-0.459,1.81-0.887C5.434,9,5.603,8.564,5.603,8.564
		l1.074,0.736L7.751,8.56c0,0,0.169,0.427,0.336,0.563c0.869,0.638,2.089,0.933,2.31,1.146c0.402,0.39,0.549,0.981,0.613,1.731H7v1
		h5.002h2.997C15.552,13,16,12.49,16,11.938v-9C16,2.935,15.989,2.933,15.986,2.93z M8.441,6.448
		c-0.13,0.041-0.156,0.67-0.481,1.114C7.705,7.91,7.34,8.347,6.927,8.414C6.898,8.42,6.802,8.422,6.715,8.421
		C6.628,8.422,6.531,8.42,6.504,8.414C6.091,8.347,5.729,7.91,5.475,7.562C5.15,7.118,5.133,6.489,5.004,6.448
		C4.85,6.399,4.783,5.992,4.783,5.524C4.783,5.434,5,5.308,5,5.226c0-0.002,0-0.005,0-0.006C5,4.398,5.764,3.75,6.654,3.75
		c0,0,0,0,0.004,0c0.008,0,0.015,0,0.019,0c0.005,0,0.011,0,0.017,0c0,0,0.002,0,0.004,0h0.001c0.005,0,0.01,0,0.015,0
		s0.01,0,0.015,0h0.001c0.002,0,0.004,0,0.004,0c0.006,0,0.012,0,0.017,0c0.004,0,0.011,0,0.019,0c0.004,0,0.004,0,0.004,0
		C7.662,3.75,8.5,4.398,8.5,5.219c0,0.001,0,0.003,0,0.006c0,0.013,0.008,0.029,0.015,0.045C8.557,5.349,8.68,5.449,8.68,5.524
		C8.68,5.992,8.596,6.399,8.441,6.448z M15,7h-4V6h4V7z M15,5h-4V4h4V5z"/>
</g>
</svg>
